packages/core/src/svgs/tokens/branded/AREA.svg

<svg width="24" height="24" viewBox="0 0 24 24" fill="none" xmlns="http://www.w3.org/2000/svg">
<path d="M12.0005 2L7.26367 9.36834H9.63204L12.0005 5.4L14.3689 9.36834H16.7373L12.0005 2Z" fill="#B8A874"/>
<path d="M12.0005 22L7.26367 14.6316H9.63204L12.0005 18.6L14.3689 14.6316H16.7373L12.0005 22Z" fill="#A0857C"/>
<path d="M6.47393 10.9474L4.63184 13.0525H19.3686L17.5265 10.9474H6.47393Z" fill="#A4A4A4"/>
</svg>

<svg xmlns="http://www.w3.org/2000/svg" width="24" height="24" fill="none" viewBox="0 0 24 24">
    <path fill="#B8A874" d="M12 2 7.265 9.368h2.368L12.001 5.4l2.368 3.968h2.368z"/>
    <path fill="#A0857C" d="m12 22-4.736-7.368h2.368l2.369 3.968 2.368-3.968h2.368z"/>
    <path fill="#A4A4A4" d="m6.474 10.947-1.842 2.106h14.737l-1.843-2.106z"/>
</svg>
